src/assets/icons/filters/categories/furniture_stroke.svg

<svg width="48" height="37" viewBox="0 0 48 37" fill="none" xmlns="http://www.w3.org/2000/svg">
<path fill-rule="evenodd" clip-rule="evenodd" d="M44.9995 29.4397C44.9953 29.8335 44.8351 30.2096 44.5541 30.4855C44.2731 30.7614 43.8942 30.9147 43.5003 30.9117H4.50075C4.10666 30.9151 3.72731 30.762 3.44595 30.4861C3.16458 30.2101 3.00419 29.8338 2.99997 29.4397V25.0237C2.99997 24.2109 3.67196 23.5517 4.50075 23.5517H43.5003C43.8942 23.5488 44.2731 23.702 44.5541 23.9779C44.8351 24.2539 44.9953 24.6299 44.9995 25.0237V29.4397ZM6.59833 14.7198C8.58231 14.7198 10.1951 16.3038 10.1951 18.2494C10.1951 19.1102 9.87509 19.9406 9.2959 20.5822C9.2895 20.5902 9.2879 20.5998 9.2831 20.6078H4.49915C4.31035 20.6078 4.13116 20.6398 3.94716 20.6622C3.92636 20.6382 3.91996 20.6062 3.89916 20.5822C3.32081 19.9428 3.00039 19.1115 2.99997 18.2494C2.99997 16.3038 4.61595 14.7198 6.59833 14.7198V14.7198ZM5.99994 8.86071C5.99994 5.59674 9.3183 2.94397 13.3983 2.94397H17.9726C20.4686 2.94397 22.5006 4.93755 22.5006 7.38712V20.6078H12.7359C13.0319 19.8622 13.1951 19.0654 13.1951 18.2494C13.1951 14.6814 10.2351 11.7759 6.59833 11.7759C6.39353 11.7759 6.19993 11.8175 5.99994 11.8351V8.86071V8.86071ZM30.0285 2.94397H34.6028C38.6828 2.94397 41.9996 5.59834 41.9996 8.86071V11.8127C41.958 11.8095 41.9196 11.7967 41.878 11.7935C40.1372 11.6621 38.4151 12.2233 37.086 13.3551C36.4318 13.9043 35.8944 14.5793 35.5058 15.3401C35.1172 16.1008 34.8852 16.9318 34.8236 17.7838C34.761 18.7482 34.9197 19.7141 35.2876 20.6078H25.5005V7.38712C25.5005 4.93755 27.5325 2.94397 30.0285 2.94397V2.94397ZM43.5003 20.6078H38.6492C38.6108 20.5342 38.5932 20.4542 38.5404 20.3886C37.9874 19.6769 37.7313 18.7788 37.8258 17.8825C37.9204 16.9862 38.3582 16.1613 39.0476 15.5806C39.773 14.9649 40.7115 14.6592 41.6604 14.7294C42.6089 14.7922 43.494 15.2276 44.1227 15.9406C44.7515 16.6526 45.0603 17.563 44.9915 18.5022C44.9435 19.123 44.7355 19.7182 44.3835 20.2286C44.2937 20.3655 44.2287 20.5171 44.1915 20.6766C43.9633 20.6357 43.7322 20.6127 43.5003 20.6078V20.6078ZM46.7531 21.9886C46.7867 21.9486 46.8347 21.9262 46.8651 21.8814C47.5135 20.9452 47.8991 19.8524 47.9819 18.7166C48.0463 17.8659 47.9386 17.011 47.6654 16.2028C47.3921 15.3946 46.9589 14.6497 46.3915 14.0126C45.983 13.5644 45.5146 13.1746 44.9995 12.8543V8.86071C44.9995 3.97436 40.3372 0 34.6028 0H30.0285C27.5533 0 25.3725 1.19359 23.9997 3.00797C23.2967 2.07407 22.3863 1.31626 21.3404 0.794262C20.2944 0.272268 19.1416 0.000369393 17.9726 0H13.3983C7.66392 0 2.99997 3.97436 2.99997 8.86071V12.8351C1.19999 13.9934 0 15.9838 0 18.2494C0 19.603 0.454396 20.899 1.24639 21.9902C0.450937 22.7999 0.00363059 23.8886 0 25.0237V29.4397C0 31.8749 2.01918 33.8556 4.50075 33.8556V35.3276C4.50075 36.142 5.17114 36.7996 5.99994 36.7996C6.19519 36.8017 6.38894 36.7653 6.5701 36.6924C6.75126 36.6196 6.91627 36.5117 7.05567 36.3749C7.19508 36.2382 7.30614 36.0753 7.38251 35.8956C7.45888 35.7159 7.49905 35.5229 7.50072 35.3276V33.8556H40.5004V35.3276C40.5004 36.142 41.1708 36.7996 41.9996 36.7996C42.1948 36.8017 42.3886 36.7653 42.5697 36.6924C42.7509 36.6196 42.9159 36.5117 43.0553 36.3749C43.1947 36.2382 43.3058 36.0753 43.3821 35.8956C43.4585 35.7159 43.4987 35.5229 43.5003 35.3276V33.8556C45.9803 33.8556 47.9995 31.8749 47.9995 29.4397V25.0237C47.9959 23.8881 47.5486 22.7989 46.7531 21.9886V21.9886Z" fill="black"/>
</svg>

<svg width="48" height="37" viewBox="0 0 48 37" fill="none" xmlns="http://www.w3.org/2000/svg"><path fill-rule="evenodd" clip-rule="evenodd" d="M45 29.44a1.488 1.488 0 01-1.5 1.472h-39A1.488 1.488 0 013 29.44v-4.416c0-.813.672-1.472 1.5-1.472h39a1.488 1.488 0 011.5 1.472v4.416zM6.597 14.72c1.984 0 3.597 1.584 3.597 3.53 0 .86-.32 1.69-.9 2.332-.005.008-.007.018-.012.026H4.5c-.189 0-.368.032-.552.054-.02-.024-.027-.056-.048-.08A3.48 3.48 0 013 18.25c0-1.945 1.616-3.53 3.598-3.53zM6 8.86c0-3.263 3.318-5.916 7.398-5.916h4.575c2.496 0 4.528 1.994 4.528 4.443v13.22h-9.765c.296-.745.46-1.542.46-2.358 0-3.568-2.96-6.473-6.598-6.473-.204 0-.398.042-.598.06V8.86zm24.029-5.916h4.574c4.08 0 7.397 2.654 7.397 5.917v2.952c-.042-.004-.08-.016-.122-.02a6.622 6.622 0 00-4.792 1.562 6.382 6.382 0 00-2.262 4.429 6.34 6.34 0 00.464 2.824H25.5V7.388c0-2.45 2.031-4.444 4.527-4.444zM43.5 20.608h-4.85c-.04-.074-.057-.154-.11-.22a3.488 3.488 0 01.508-4.807 3.624 3.624 0 012.612-.852 3.6 3.6 0 012.463 1.212c.629.712.937 1.622.869 2.561a3.514 3.514 0 01-.608 1.727c-.09.137-.155.288-.193.448a4.45 4.45 0 00-.69-.07zm3.253 1.38c.034-.04.082-.062.112-.107a6.372 6.372 0 001.117-3.164 6.352 6.352 0 00-1.59-4.704 6.596 6.596 0 00-1.393-1.159V8.861C45 3.974 40.337 0 34.603 0h-4.575A7.546 7.546 0 0024 3.008 7.547 7.547 0 0017.973 0h-4.575C7.664 0 3 3.974 3 8.86v3.975c-1.8 1.158-3 3.149-3 5.414 0 1.354.454 2.65 1.246 3.741A4.348 4.348 0 000 25.024v4.416c0 2.435 2.02 4.416 4.5 4.416v1.472c0 .814.671 1.472 1.5 1.472a1.484 1.484 0 001.5-1.472v-1.472h33v1.472c0 .814.67 1.472 1.5 1.472a1.484 1.484 0 001.5-1.472v-1.472c2.48 0 4.5-1.981 4.5-4.416v-4.416a4.352 4.352 0 00-1.247-3.035z" fill="#000"/></svg>
